packages/ffe-icons/icons/filled/lg/personal_video.svg

<svg xmlns="http://www.w3.org/2000/svg" height="40" viewBox="0 -960 960 960" width="40"><path d="M162.565-220.001q-25.788 0-44.176-18.388t-18.388-44.176v-474.87q0-25.788 18.388-44.176t44.176-18.388h634.87q25.788 0 44.176 18.388t18.388 44.176v474.87q0 25.788-18.388 44.176t-44.176 18.388H615.127v48.718q0 13.557-8.862 22.419-8.862 8.863-22.42 8.863h-207.69q-13.558 0-22.42-8.863-8.862-8.862-8.862-22.419v-48.718H162.565Z"/></svg>

<svg xmlns="http://www.w3.org/2000/svg" viewBox="0 -960 960 960" width="32" height="32"><path d="M162.57-220q-25.79 0-44.18-18.39T100-282.57v-474.86q0-25.79 18.39-44.18T162.57-820h634.86q25.79 0 44.18 18.39T860-757.43v474.86q0 25.79-18.39 44.18T797.43-220h-182.3v48.72q0 13.55-8.87 22.42-8.86 8.86-22.42 8.86H376.16q-13.56 0-22.42-8.86-8.87-8.87-8.87-22.42V-220h-182.3Z"/></svg>
